img/eco-system-1.svg

<svg fill="none" height="217" viewBox="0 0 217 217" width="217" xmlns="http://www.w3.org/2000/svg" xmlns:xlink="http://www.w3.org/1999/xlink"><clipPath id="a"><path d="m0 0h216.551v216.551h-216.551z"/></clipPath><g clip-path="url(#a)"><path d="m74.2461 95.3857h28.8734v17.5303h-28.8734z" fill="#fff"/><path d="m82.9671 55.753 1.0766 6.1497c.1411.8054-.3931 1.574-1.1972 1.7227-.6492.12-1.3001-.2014-1.5995-.7899l-2.6615-5.2326c-1.373-2.6995-4.4879-4.0214-7.3834-3.1334l-3.0369.9313c-2.2763.6981-4.7294-.3036-5.8665-2.3955l-3.207-5.9001 17.2154 2.265c3.376.4442 6.0728 3.0287 6.66 6.3828z" fill="#0d06c1"/><path d="m88.8878 55.9712 1.9938 10.6007c.1755.9333-.4408 1.8317-1.3747 2.0039-.7554.1393-1.5112-.2405-1.8503-.9297l-3.6554-7.4306c-2.7326-5.5547-9.0829-8.317-15.0095-6.529l-2.4687.7448c-3.2878.9919-6.6082-1.4471-6.645-4.881l-.0564-5.271 17.9124 1.5801c5.5636.4907 10.1215 4.6228 11.1538 10.1118z" fill="#241ed3"/><path d="m89.4865 52.8754 7.168 11.0921c.5799.8974.2967 2.097-.6233 2.6403-.7643.4514-1.7401.3069-2.3409-.3465l-7.8528-8.5414c-4.0333-4.387-10.2282-6.0668-15.9252-4.3183l-3.3369 1.0241c-3.2949 1.0113-6.6352-1.4327-6.6685-4.8791l-.0455-4.6924 18.4933 1.4029c4.5412.3445 8.6599 2.7933 11.1318 6.6183z" fill="#403add"/><path d="m123.664 165.285-5.138 13.061c-.447 1.135.108 2.418 1.242 2.869 1.043.416 2.233-.015 2.768-1.002l2.575-4.753c3.344-6.171 10.208-9.57 17.142-8.491l9.194 1.431-6.446-13.42-7.976.534c-5.968.399-11.171 4.204-13.361 9.771z" fill="#0d06c1"/><path d="m118.104 160.129-14.716 13.389c-1.015.923-.908 2.55.219 3.333.705.491 1.636.51 2.362.051l5.095-3.228c7.036-4.456 15.173-6.868 23.502-6.965l11.579-.135-3.054-14.733-18.437 4.75c-2.439.628-4.687 1.842-6.55 3.538z" fill="#241ed3"/><path d="m117.155 155.991-23.6384 11.004c-.9894.461-1.5049 1.565-1.2225 2.62.326 1.216 1.5876 1.927 2.7971 1.577l15.6768-4.547c5.471-1.587 11.135-2.41 16.832-2.447l14.047-.091.564-11.667-20.2 2.197c-1.682.182-3.322.64-4.856 1.354z" fill="#403add"/><path d="m115.328 151.814-21.4651 8.18c-1.2754.486-1.9765 1.858-1.6233 3.176.3723 1.389 1.7807 2.232 3.1807 1.902l20.2977-4.774c2.388-.562 4.875-.548 7.256.041l14.32 3.543c1.681.416 1.816 2.753.194 3.359l-2.067.773c-2.216.829-4.553 1.291-6.919 1.368l-7.979.26c-1.665.055-2.966 1.459-2.893 3.124.063 1.453 1.163 2.65 2.605 2.838l19.16 2.488c5.795.753 11.675.515 17.39-.703l30.032-6.401c4.711-1.004 8.079-5.165 8.079-9.982 0-5.637-4.57-10.206-10.206-10.206h-27.948-35.905c-1.883 0-3.749.343-5.509 1.014z" fill="#5b57ca"/><ellipse cx="112.142" cy="107.245" rx="61.0983" ry="61.356" stroke="#5b57ca" stroke-width="1.03119"/><path clip-rule="evenodd" d="m51.0442 186.646c-9.9665 0-18.0459-8.08-18.0459-18.046 0-9.967 8.0794-18.046 18.0459-18.046h17.5303c.2847 0 .5156.231.5156.515v17.531c0 9.966-8.0794 18.046-18.0459 18.046z" fill="#5b57ca" fill-rule="evenodd"/><rect height="3.60918" rx="1.80459" stroke="#fff" stroke-width=".515597" transform="matrix(0 -1 1 0 -127.8675 226.3465)" width="3.60918" x="49.2395" y="177.107"/><rect height="3.60918" rx="1.80459" stroke="#fff" stroke-width=".515597" transform="matrix(0 -1 1 0 -121.1645 219.6435)" width="3.60918" x="49.2395" y="170.404"/><rect height="3.60918" rx="1.80459" stroke="#fff" stroke-width=".515597" transform="matrix(0 -1 1 0 -114.4625 212.9415)" width="3.60918" x="49.2395" y="163.702"/><rect fill="#5b57ca" height="4.12478" rx="2.06239" width="4.12478" x="79.9175" y="102.088"/><rect fill="#5b57ca" height="4.12478" rx="2.06239" width="4.12478" x="86.6204" y="102.088"/><rect fill="#5b57ca" height="4.12478" rx="2.06239" width="4.12478" x="93.323" y="102.088"/><circle cx="80.1754" cy="84.3004" fill="#fff500" r="6.96056"/><path d="m102.984 40.2168-5.5362 5.4138 5.5362 5.4137" stroke="#fff500" stroke-linecap="round" stroke-linejoin="round" stroke-width="1.03119"/><path d="m120.785 40.2168 5.536 5.4138-5.536 5.4137" stroke="#fff500" stroke-linecap="round" stroke-linejoin="round" stroke-width="1.03119"/><circle cx="111.627" cy="45.6306" fill="#fff500" r="3.86698"/><g fill="#5b57ca"><path d="m126.837 106.986c0 .285.231.516.516.516.284 0 .515-.231.515-.516zm70.228 37.746c.201-.202.201-.528 0-.73l-3.281-3.281c-.202-.201-.528-.201-.729 0-.202.202-.202.528 0 .729l2.916 2.917-2.916 2.917c-.202.201-.202.528 0 .729.201.201.527.201.729 0zm-107.8666-.881c-20.7973 0-37.6386-16.515-37.6386-36.865h-1.0312c0 20.94 17.323 37.897 38.6698 37.897zm-37.6386-36.865c0-20.3499 16.8413-36.8649 37.6386-36.8649v-1.0312c-21.3468 0-38.6698 16.9569-38.6698 37.8961zm37.6386-36.8649c20.7976 0 37.6386 16.515 37.6386 36.8649h1.031c0-20.9392-17.323-37.8961-38.6696-37.8961zm0 74.7619h107.5016v-1.032h-107.5016z"/><path d="m127.868 106.987c0-.285-.231-.516-.515-.516-.285 0-.516.231-.516.516zm22.429-22.4289v-.5156zm-48.058-.3646c-.201.2014-.201.5278 0 .7292l3.282 3.2812c.201.2014.527.2014.729 0 .201-.2013.201-.5278 0-.7291l-2.917-2.9167 2.917-2.9167c.201-.2013.201-.5278 0-.7291-.202-.2014-.528-.2014-.729 0zm48.058.8802c12.398 0 22.428 9.8217 22.428 21.9133h1.031c0-12.6831-10.514-22.9445-23.459-22.9445zm22.428 21.9133c0 12.091-10.03 21.912-22.428 21.912v1.032c12.945 0 23.459-10.262 23.459-22.944zm-22.428 21.912c-12.398 0-22.429-9.821-22.429-21.912h-1.031c0 12.682 10.514 22.944 23.46 22.944zm0-44.8565h-47.693v1.0312h47.693z"/><path d="m73.3612 42.0917c-.0736.2751.0896.5578.3646.6315l4.4823 1.201c.275.0737.5578-.0895.6315-.3646.0737-.275-.0896-.5577-.3646-.6314l-3.9842-1.0676 1.0675-3.9842c.0737-.2751-.0895-.5578-.3646-.6315-.275-.0737-.5577.0895-.6314.3646zm76.5658 132.6163c-.073.275.09.558.365.632l4.482 1.201c.275.073.558-.09.632-.365.073-.275-.09-.558-.365-.631l-3.984-1.068 1.067-3.984c.074-.275-.089-.558-.364-.632-.275-.073-.558.09-.632.365zm-75.8099-132.0363c37.1229-21.4328 84.2309-9.303 105.2269 27.063l.893-.5156c-21.291-36.876-69.037-49.1482-106.6355-27.4404zm105.2269 27.063c20.996 36.3663 7.946 83.2273-29.176 104.6603l.515.893c37.599-21.708 50.844-69.193 29.554-106.0689z"/><path d="m43.9324 129.779c.2014-.201.2014-.528 0-.729l-3.2812-3.281c-.2014-.202-.5278-.202-.7292 0-.2013.201-.2013.528 0 .729l2.9167 2.917-2.9167 2.916c-.2013.202-.2013.528 0 .729.2014.202.5278.202.7292 0zm-23.3086-22.793h.5156zm22.9441-22.4284v.5156zm36.6073.5156c.2848 0 .5156-.2308.5156-.5156 0-.2847-.2308-.5156-.5156-.5156zm-36.6074 43.8258c-12.398 0-22.4284-9.822-22.4284-21.913h-1.0312c0 12.683 10.5143 22.944 23.4596 22.944zm-22.4284-21.913c0-12.089 10.1699-21.9128 22.4285-21.9128v-1.0312c-12.8017 0-23.4597 10.2594-23.4597 22.944zm22.4285-21.9128h36.6073v-1.0312h-36.6073z"/></g><circle cx="111.369" cy="168.6" fill="#fff500" r="6.18716"/><path d="m176.85 160.864h12.371" stroke="#f55c5c" stroke-linecap="round" stroke-width="1.03119"/><path d="m183.035 154.679v12.37" stroke="#f55c5c" stroke-linecap="round" stroke-width="1.03119"/><path d="m90.1773 50.0852 10.9047 11.2502c.908.9364.701 2.4753-.422 3.1384-.6813.4022-1.5348.3688-2.1825-.0856l-10.6263-7.455c-3.8883-2.7278-8.8142-3.518-13.3606-2.1432l-7.5329 2.2778c-2.2078.6676-2.5235 3.663-.5035 4.7763l10.0898 5.5606c1.5221.8389 1.9622 2.8233.9375 4.2269-.6814.9333-1.8539 1.3699-2.9796 1.1095l-17.5167-4.051c-7.8277-1.9996-14.9699-6.0766-20.6718-11.8002l-12.359-12.4062c-4.5633-4.5807-3.5865-12.2344 1.9811-15.5221 3.4135-2.0158 7.7-1.8025 10.8966.5421l10.2092 7.4883c4.0238 2.9514 8.7019 4.8856 13.6352 5.6376l21.3552 3.2551c3.1012.4727 5.9622 1.9481 8.1456 4.2005z" fill="#5b57ca"/><path d="m31.0537 31.9668v10.5478" stroke="#f55c5c" stroke-linecap="round" stroke-width="1.03119"/><path d="m36.3276 37.2412h-10.5477" stroke="#f55c5c" stroke-linecap="round" stroke-width="1.03119"/><path d="m111.885 107.244h28.8734v17.5303h-28.8734z" fill="#5b57ca"/><path d="m121.593 111.885-4.037 4.125 4.037 4.124" stroke="#fff500" stroke-linecap="round" stroke-linejoin="round" stroke-width="1.03119"/><path d="m131.565 111.885 4.037 4.125-4.037 4.124" stroke="#fff500" stroke-linecap="round" stroke-linejoin="round" stroke-width="1.03119"/><path d="m.515597-.515597h8.140003" stroke="#fff500" stroke-linecap="round" stroke-linejoin="round" stroke-width="1.03119" transform="matrix(-.491918 .870642 -.861283 -.508126 128.434 111.885)"/><path d="m45.3726 120.649h28.8734v17.5303h-28.8734z" fill="#f55c5c"/><path d="m55.0806 125.29-4.0366 4.125 4.0366 4.125" stroke="#fff500" stroke-linecap="round" stroke-linejoin="round" stroke-width="1.03119"/><path d="m65.0535 125.29 4.0366 4.125-4.0366 4.125" stroke="#fff500" stroke-linecap="round" stroke-linejoin="round" stroke-width="1.03119"/><path d="m.515597-.515597h8.140003" stroke="#fff500" stroke-linecap="round" stroke-linejoin="round" stroke-width="1.03119" transform="matrix(-.491918 .870642 -.861283 -.508126 61.9221 125.29)"/><circle cx="111.885" cy="116.525" fill="#f66" r="3.09358"/><circle cx="74.2459" cy="104.151" fill="#f66" r="3.09358"/><circle cx="74.2459" cy="129.93" fill="#5b57ca" r="3.09358"/><circle cx="111.369" cy="168.6" fill="#5b57ca" r="3.09358"/><circle cx="50.7864" cy="105.955" fill="#fff500" r="3.86698"/><path d="m111.885 116.524c-14.1793 0-19.0774 13.664-37.8967 13.664" stroke="#5b57ca" stroke-linecap="round" stroke-width="1.03119"/><path d="m74.5037 104.15c-14.1789 0-12.1165-19.5924-30.9358-19.5924" stroke="#5b57ca" stroke-linecap="round" stroke-width="1.03119"/><path d="m111.111 168.858c-14.1786 0-18.0456-38.67-36.8649-38.67" stroke="#5b57ca" stroke-linecap="round" stroke-width="1.03119"/><circle cx="172.983" cy="105.955" fill="#fff500" r="3.86698"/><circle cx="68.8323" cy="150.812" fill="#fff500" r="3.86698"/><circle cx="134.313" cy="69.8636" fill="#fff500" r="11.6009"/><path d="m119.619 69.8631h-.516zm0 14.6945h-.516v.5156h.516zm14.694 0v-.5156zm0-28.8734c7.831 0 14.179 6.3481 14.179 14.1789h1.031c0-8.4003-6.81-15.2101-15.21-15.2101zm-14.179 14.1789c0-7.8308 6.348-14.1789 14.179-14.1789v-1.0312c-8.4 0-15.21 6.8098-15.21 15.2101zm0 14.6945v-14.6945h-1.031v14.6945zm14.179-.5156h-14.694v1.0312h14.694zm14.179-14.1789c0 7.8308-6.348 14.1789-14.179 14.1789v1.0312c8.4 0 15.21-6.8098 15.21-15.2101z" fill="#5b57ca"/><path d="m129.695 69.0484 3.77 5.4333 5.466-9.2366" stroke="#5b57ca" stroke-linecap="round" stroke-linejoin="round" stroke-width="1.03119"/></g></svg>

<svg width="217" height="217" viewBox="0 0 217 217" fill="none" xmlns="http://www.w3.org/2000/svg">
<g clip-path="url(#clip0_3381_5363)">
<rect x="74.2461" y="95.3857" width="28.8734" height="17.5303" fill="white"/>
<path d="M82.9671 55.753L84.0437 61.9027C84.1848 62.7081 83.6506 63.4767 82.8465 63.6254C82.1973 63.7454 81.5464 63.424 81.247 62.8355L78.5855 57.6029C77.2125 54.9034 74.0976 53.5815 71.2021 54.4695L68.1652 55.4008C65.8889 56.0989 63.4358 55.0972 62.2987 53.0053L59.0917 47.1052L76.3071 49.3702C79.6831 49.8144 82.3799 52.3989 82.9671 55.753Z" fill="#0D06C1"/>
<path d="M88.8878 55.9712L90.8816 66.5719C91.0571 67.5052 90.4408 68.4036 89.5069 68.5758C88.7515 68.7151 87.9957 68.3353 87.6566 67.6461L84.0012 60.2155C81.2686 54.6608 74.9183 51.8985 68.9917 53.6865L66.523 54.4313C63.2352 55.4232 59.9148 52.9842 59.878 49.5503L59.8216 44.2793L77.734 45.8594C83.2976 46.3501 87.8555 50.4822 88.8878 55.9712Z" fill="#241ED3"/>
<path d="M89.4865 52.8754L96.6545 63.9675C97.2344 64.8649 96.9512 66.0645 96.0312 66.6078C95.2669 67.0592 94.2911 66.9147 93.6903 66.2613L85.8375 57.7199C81.8042 53.3329 75.6093 51.6531 69.9123 53.4016L66.5754 54.4257C63.2805 55.437 59.9402 52.993 59.9069 49.5466L59.8614 44.8542L78.3547 46.2571C82.8959 46.6016 87.0146 49.0504 89.4865 52.8754Z" fill="#403ADD"/>
<path d="M123.664 165.285L118.526 178.346C118.079 179.481 118.634 180.764 119.768 181.215C120.811 181.631 122.001 181.2 122.536 180.213L125.111 175.46C128.455 169.289 135.319 165.89 142.253 166.969L151.447 168.4L145.001 154.98L137.025 155.514C131.057 155.913 125.854 159.718 123.664 165.285Z" fill="#0D06C1"/>
<path d="M118.104 160.129L103.388 173.518C102.373 174.441 102.48 176.068 103.607 176.851C104.312 177.342 105.243 177.361 105.969 176.902L111.064 173.674C118.1 169.218 126.237 166.806 134.566 166.709L146.145 166.574L143.091 151.841L124.654 156.591C122.215 157.219 119.967 158.433 118.104 160.129Z" fill="#241ED3"/>
<path d="M117.155 155.991L93.5166 166.995C92.5272 167.456 92.0117 168.56 92.2941 169.615C92.6201 170.831 93.8817 171.542 95.0912 171.192L110.768 166.645C116.239 165.058 121.903 164.235 127.6 164.198L141.647 164.107L142.211 152.44L122.011 154.637C120.329 154.819 118.689 155.277 117.155 155.991Z" fill="#403ADD"/>
<path d="M115.328 151.814L93.8629 159.994C92.5875 160.48 91.8864 161.852 92.2396 163.17C92.6119 164.559 94.0203 165.402 95.4203 165.072L115.718 160.298C118.106 159.736 120.593 159.75 122.974 160.339L137.294 163.882C138.975 164.298 139.11 166.635 137.488 167.241L135.421 168.014C133.205 168.843 130.868 169.305 128.502 169.382L120.523 169.642C118.858 169.697 117.557 171.101 117.63 172.766C117.693 174.219 118.793 175.416 120.235 175.604L139.395 178.092C145.19 178.845 151.07 178.607 156.785 177.389L186.817 170.988C191.528 169.984 194.896 165.823 194.896 161.006C194.896 155.369 190.326 150.8 184.69 150.8L156.742 150.8L120.837 150.8C118.954 150.8 117.088 151.143 115.328 151.814Z" fill="#5B57CA"/>
<ellipse cx="112.142" cy="107.245" rx="61.0983" ry="61.356" stroke="#5B57CA" stroke-width="1.03119"/>
<path fill-rule="evenodd" clip-rule="evenodd" d="M51.0442 186.646C41.0777 186.646 32.9983 178.566 32.9983 168.6C32.9983 158.633 41.0777 150.554 51.0442 150.554H68.5745C68.8592 150.554 69.0901 150.785 69.0901 151.069V168.6C69.0901 178.566 61.0107 186.646 51.0442 186.646Z" fill="#5B57CA"/>
<rect x="49.2395" y="177.107" width="3.60918" height="3.60918" rx="1.80459" transform="rotate(-90 49.2395 177.107)" stroke="white" stroke-width="0.515597"/>
<rect x="49.2395" y="170.404" width="3.60918" height="3.60918" rx="1.80459" transform="rotate(-90 49.2395 170.404)" stroke="white" stroke-width="0.515597"/>
<rect x="49.2395" y="163.702" width="3.60918" height="3.60918" rx="1.80459" transform="rotate(-90 49.2395 163.702)" stroke="white" stroke-width="0.515597"/>
<rect x="79.9175" y="102.088" width="4.12478" height="4.12478" rx="2.06239" fill="#5B57CA"/>
<rect x="86.6204" y="102.088" width="4.12478" height="4.12478" rx="2.06239" fill="#5B57CA"/>
<rect x="93.323" y="102.088" width="4.12478" height="4.12478" rx="2.06239" fill="#5B57CA"/>
<circle cx="80.1754" cy="84.3004" r="6.96056" fill="#FFF500"/>
<path d="M102.984 40.2168L97.4478 45.6306L102.984 51.0443" stroke="#FFF500" stroke-width="1.03119" stroke-linecap="round" stroke-linejoin="round"/>
<path d="M120.785 40.2168L126.321 45.6306L120.785 51.0443" stroke="#FFF500" stroke-width="1.03119" stroke-linecap="round" stroke-linejoin="round"/>
<circle cx="111.627" cy="45.6306" r="3.86698" fill="#FFF500"/>
<path d="M126.837 106.986C126.837 107.271 127.068 107.502 127.353 107.502C127.637 107.502 127.868 107.271 127.868 106.986H126.837ZM197.065 144.732C197.266 144.53 197.266 144.204 197.065 144.002L193.784 140.721C193.582 140.52 193.256 140.52 193.055 140.721C192.853 140.923 192.853 141.249 193.055 141.45L195.971 144.367L193.055 147.284C192.853 147.485 192.853 147.812 193.055 148.013C193.256 148.214 193.582 148.214 193.784 148.013L197.065 144.732ZM89.1984 143.851C68.4011 143.851 51.5598 127.336 51.5598 106.986H50.5286C50.5286 127.926 67.8516 144.883 89.1984 144.883V143.851ZM51.5598 106.986C51.5598 86.6361 68.4011 70.1211 89.1984 70.1211V69.0899C67.8516 69.0899 50.5286 86.0468 50.5286 106.986H51.5598ZM89.1984 70.1211C109.996 70.1211 126.837 86.6361 126.837 106.986H127.868C127.868 86.0468 110.545 69.0899 89.1984 69.0899V70.1211ZM89.1984 144.883H196.7V143.851H89.1984V144.883Z" fill="#5B57CA"/>
<path d="M127.868 106.987C127.868 106.702 127.637 106.471 127.353 106.471C127.068 106.471 126.837 106.702 126.837 106.987L127.868 106.987ZM150.297 84.5581L150.297 84.0425L150.297 84.5581ZM102.239 84.1935C102.038 84.3949 102.038 84.7213 102.239 84.9227L105.521 88.2039C105.722 88.4053 106.048 88.4053 106.25 88.2039C106.451 88.0026 106.451 87.6761 106.25 87.4748L103.333 84.5581L106.25 81.6414C106.451 81.4401 106.451 81.1136 106.25 80.9123C106.048 80.7109 105.722 80.7109 105.521 80.9123L102.239 84.1935ZM150.297 85.0737C162.695 85.0737 172.725 94.8954 172.725 106.987L173.756 106.987C173.756 94.3039 163.242 84.0425 150.297 84.0425L150.297 85.0737ZM172.725 106.987C172.725 119.078 162.695 128.899 150.297 128.899L150.297 129.931C163.242 129.931 173.756 119.669 173.756 106.987L172.725 106.987ZM150.297 128.899C137.899 128.899 127.868 119.078 127.868 106.987L126.837 106.987C126.837 119.669 137.351 129.931 150.297 129.931L150.297 128.899ZM150.297 84.0425L102.604 84.0425L102.604 85.0737L150.297 85.0737L150.297 84.0425Z" fill="#5B57CA"/>
<path d="M73.3612 42.0917C73.2876 42.3668 73.4508 42.6495 73.7258 42.7232L78.2081 43.9242C78.4831 43.9979 78.7659 43.8347 78.8396 43.5596C78.9133 43.2846 78.75 43.0019 78.475 42.9282L74.4908 41.8606L75.5583 37.8764C75.632 37.6013 75.4688 37.3186 75.1937 37.2449C74.9187 37.1712 74.636 37.3344 74.5623 37.6095L73.3612 42.0917ZM149.927 174.708C149.854 174.983 150.017 175.266 150.292 175.34L154.774 176.541C155.049 176.614 155.332 176.451 155.406 176.176C155.479 175.901 155.316 175.618 155.041 175.545L151.057 174.477L152.124 170.493C152.198 170.218 152.035 169.935 151.76 169.861C151.485 169.788 151.202 169.951 151.128 170.226L149.927 174.708ZM74.1171 42.6717C111.24 21.2389 158.348 33.3687 179.344 69.7347L180.237 69.2191C158.946 32.3431 111.2 20.0709 73.6015 41.7787L74.1171 42.6717ZM179.344 69.7347C200.34 106.101 187.29 152.962 150.168 174.395L150.683 175.288C188.282 153.58 201.527 106.095 180.237 69.2191L179.344 69.7347Z" fill="#5B57CA"/>
<path d="M43.9324 129.779C44.1338 129.578 44.1338 129.251 43.9324 129.05L40.6512 125.769C40.4498 125.567 40.1234 125.567 39.922 125.769C39.7207 125.97 39.7207 126.297 39.922 126.498L42.8387 129.415L39.922 132.331C39.7207 132.533 39.7207 132.859 39.922 133.06C40.1234 133.262 40.4498 133.262 40.6512 133.06L43.9324 129.779ZM20.6238 106.986H21.1394H20.6238ZM43.5679 84.5576V85.0732V84.5576ZM80.1752 85.0732C80.46 85.0732 80.6908 84.8424 80.6908 84.5576C80.6908 84.2729 80.46 84.042 80.1752 84.042V85.0732ZM43.5678 128.899C31.1698 128.899 21.1394 119.077 21.1394 106.986H20.1082C20.1082 119.669 30.6225 129.93 43.5678 129.93V128.899ZM21.1394 106.986C21.1394 94.897 31.3093 85.0732 43.5679 85.0732V84.042C30.7662 84.042 20.1082 94.3014 20.1082 106.986H21.1394ZM43.5679 85.0732H80.1752V84.042H43.5679V85.0732Z" fill="#5B57CA"/>
<circle cx="111.369" cy="168.6" r="6.18716" fill="#FFF500"/>
<path d="M176.85 160.864L189.221 160.864" stroke="#F55C5C" stroke-width="1.03119" stroke-linecap="round"/>
<path d="M183.035 154.679V167.049" stroke="#F55C5C" stroke-width="1.03119" stroke-linecap="round"/>
<path d="M90.1773 50.0852L101.082 61.3354C101.99 62.2718 101.783 63.8107 100.66 64.4738C99.9787 64.876 99.1252 64.8426 98.4775 64.3882L87.8512 56.9332C83.9629 54.2054 79.037 53.4152 74.4906 54.79L66.9577 57.0678C64.7499 57.7354 64.4342 60.7308 66.4542 61.8441L76.544 67.4047C78.0661 68.2436 78.5062 70.228 77.4815 71.6316C76.8001 72.5649 75.6276 73.0015 74.5019 72.7411L56.9852 68.6901C49.1575 66.6905 42.0153 62.6135 36.3134 56.8899L23.9544 44.4837C19.3911 39.903 20.3679 32.2493 25.9355 28.9616C29.349 26.9458 33.6355 27.1591 36.8321 29.5037L47.0413 36.992C51.0651 39.9434 55.7432 41.8776 60.6765 42.6296L82.0317 45.8847C85.1329 46.3574 87.9939 47.8328 90.1773 50.0852Z" fill="#5B57CA"/>
<path d="M31.0537 31.9668L31.0537 42.5146" stroke="#F55C5C" stroke-width="1.03119" stroke-linecap="round"/>
<path d="M36.3276 37.2412L25.7799 37.2412" stroke="#F55C5C" stroke-width="1.03119" stroke-linecap="round"/>
<rect x="111.885" y="107.244" width="28.8734" height="17.5303" fill="#5B57CA"/>
<path d="M121.593 111.885L117.556 116.01L121.593 120.134" stroke="#FFF500" stroke-width="1.03119" stroke-linecap="round" stroke-linejoin="round"/>
<path d="M131.565 111.885L135.602 116.01L131.565 120.134" stroke="#FFF500" stroke-width="1.03119" stroke-linecap="round" stroke-linejoin="round"/>
<line x1="0.515597" y1="-0.515597" x2="8.6556" y2="-0.515597" transform="matrix(-0.491918 0.870642 -0.861283 -0.508126 128.434 111.885)" stroke="#FFF500" stroke-width="1.03119" stroke-linecap="round" stroke-linejoin="round"/>
<rect x="45.3726" y="120.649" width="28.8734" height="17.5303" fill="#F55C5C"/>
<path d="M55.0806 125.29L51.044 129.415L55.0806 133.54" stroke="#FFF500" stroke-width="1.03119" stroke-linecap="round" stroke-linejoin="round"/>
<path d="M65.0535 125.29L69.0901 129.415L65.0535 133.54" stroke="#FFF500" stroke-width="1.03119" stroke-linecap="round" stroke-linejoin="round"/>
<line x1="0.515597" y1="-0.515597" x2="8.6556" y2="-0.515597" transform="matrix(-0.491918 0.870642 -0.861283 -0.508126 61.9221 125.29)" stroke="#FFF500" stroke-width="1.03119" stroke-linecap="round" stroke-linejoin="round"/>
<circle cx="111.885" cy="116.525" r="3.09358" fill="#FF6666"/>
<circle cx="74.2459" cy="104.151" r="3.09358" fill="#FF6666"/>
<circle cx="74.2459" cy="129.93" r="3.09358" fill="#5B57CA"/>
<circle cx="111.369" cy="168.6" r="3.09358" fill="#5B57CA"/>
<circle cx="50.7864" cy="105.955" r="3.86698" fill="#FFF500"/>
<path d="M111.885 116.524C97.7057 116.524 92.8076 130.188 73.9883 130.188" stroke="#5B57CA" stroke-width="1.03119" stroke-linecap="round"/>
<path d="M74.5037 104.15C60.3248 104.15 62.3872 84.5576 43.5679 84.5576" stroke="#5B57CA" stroke-width="1.03119" stroke-linecap="round"/>
<path d="M111.111 168.858C96.9324 168.858 93.0654 130.188 74.2461 130.188" stroke="#5B57CA" stroke-width="1.03119" stroke-linecap="round"/>
<circle cx="172.983" cy="105.955" r="3.86698" fill="#FFF500"/>
<circle cx="68.8323" cy="150.812" r="3.86698" fill="#FFF500"/>
<circle cx="134.313" cy="69.8636" r="11.6009" fill="#FFF500"/>
<path d="M119.619 69.8631L119.103 69.8631L119.619 69.8631ZM119.619 84.5576L119.103 84.5576L119.103 85.0732L119.619 85.0732L119.619 84.5576ZM134.313 84.5576L134.313 84.042L134.313 84.5576ZM134.313 55.6842C142.144 55.6842 148.492 62.0323 148.492 69.8631L149.523 69.8631C149.523 61.4628 142.713 54.653 134.313 54.653L134.313 55.6842ZM120.134 69.8631C120.134 62.0323 126.482 55.6842 134.313 55.6842L134.313 54.653C125.913 54.653 119.103 61.4628 119.103 69.8631L120.134 69.8631ZM120.134 84.5576L120.134 69.8631L119.103 69.8631L119.103 84.5576L120.134 84.5576ZM134.313 84.042L119.619 84.042L119.619 85.0732L134.313 85.0732L134.313 84.042ZM148.492 69.8631C148.492 77.6939 142.144 84.042 134.313 84.042L134.313 85.0732C142.713 85.0732 149.523 78.2634 149.523 69.8631L148.492 69.8631Z" fill="#5B57CA"/>
<path d="M129.695 69.0484L133.465 74.4817L138.931 65.2451" stroke="#5B57CA" stroke-width="1.03119" stroke-linecap="round" stroke-linejoin="round"/>
</g>
<defs>
<clipPath id="clip0_3381_5363">
<rect width="216.551" height="216.551" fill="white"/>
</clipPath>
</defs>
</svg>
